X:1653
R:Visa
B:August Bondesons Visbok nr 200
Z:[[Profiles/Tommy Rådberg]]
T:Farväl du, moder Svea
M:2/4
L:1/16
K:G
D2|G2A2B2c2|d3BG2B2|c2A2F2F2|G4z2D2|G2A2B2c2|d3BG2B2|c2A2F2F2|G4z2G2|F2A2c2c2|d4B2d2|g2e2c2c2|d6D2|G2A2B2c2|d3BG2B2|c2A2F2F2|G4z2G2|F2A2c2c2|d4B2d2|g2e2c2c2|d6D2|G2A2B2c2|d3BG2B2|c2A2F2F2|G4z2|]
(:musicend:)
(:music:)
